src/images/stack-ruby.svg

<svg xmlns="http://www.w3.org/2000/svg" width="179" height="179" fill="none" viewBox="0 0 179 179"><rect width="179" height="179" fill="#fff"/><path fill="#F96132" fill-rule="evenodd" stroke="#F96132" stroke-linecap="round" stroke-linejoin="round" d="M36.46 93.3402C35.24 104.04 31.88 127.58 50.07 130.02C57.79 131.02 127.86 126.81 127.86 126.81C127.86 126.81 133.03 52.9801 130.31 47.3401C123.73 33.7301 109.21 34.0401 109.21 34.0401C109.21 34.0401 84 33.8901 75.44 40.3001C56.67 54.3801 39.11 70.1802 36.46 93.3402Z" clip-rule="evenodd"/><path fill="#E24F0D" fill-rule="evenodd" d="M38.5599 90.51C38.5599 90.51 34.4999 112.19 39.2299 122.6C43.9599 133.01 57.4899 132.13 57.4899 132.13L38.5599 90.51Z" clip-rule="evenodd"/><path fill="#E24F0D" fill-rule="evenodd" d="M67.8301 95.8799L60.8301 130.88L129.05 127.52L84.2001 123.89L102.86 106.84L67.8301 95.8799Z" clip-rule="evenodd"/><path fill="#E24F0D" fill-rule="evenodd" d="M103.15 104.34L95.6899 79.8401L97.1699 71.6901L127.05 68.8901L120.34 85.6701L124.23 122.33L103.15 104.34Z" clip-rule="evenodd"/><path fill="#E24F0D" fill-rule="evenodd" d="M102.61 45.38L131 69C131 69 132.7 49.38 130.34 46.19C121.89 34.79 111.66 35.96 111.66 35.96L109.66 40.66L102.61 45.38Z" clip-rule="evenodd"/><path fill="#E24F0D" fill-rule="evenodd" stroke="#fff" stroke-linecap="round" stroke-linejoin="round" d="M67 46.3099C83.9 33.7799 98.19 32.8099 98.92 44.1499C99.65 55.4899 86.56 74.8299 69.67 87.3699C52.78 99.9099 38.48 100.87 37.74 89.53C37 78.19 50.14 58.8499 67 46.3099Z" clip-rule="evenodd"/><path fill="#fff" fill-rule="evenodd" d="M83.71 75.36L95.5699 80.63L99.5099 49.49L83.71 75.36Z" clip-rule="evenodd"/><path fill="#fff" fill-rule="evenodd" d="M99.15 41.6401L110.26 52.0001L99.4 50.0001L99.15 41.6401Z" clip-rule="evenodd"/><path fill="#fff" fill-rule="evenodd" d="M57.88 94.8L65.98 104.59L70.32 86.52L57.88 94.8Z" clip-rule="evenodd"/></svg>

<svg fill="none" viewBox="0 0 179 179"><path fill="#fff" d="M0 0h179v179H0z"/><path fill="#F96132" fill-rule="evenodd" stroke="#F96132" stroke-linecap="round" stroke-linejoin="round" d="M36.46 93.34c-1.22 10.7-4.58 34.24 13.61 36.68 7.72 1 77.79-3.21 77.79-3.21s5.17-73.83 2.45-79.47c-6.58-13.61-21.1-13.3-21.1-13.3S84 33.89 75.44 40.3C56.67 54.38 39.11 70.18 36.46 93.34z" clip-rule="evenodd"/><path fill="#E24F0D" fill-rule="evenodd" d="M38.56 90.51s-4.06 21.68.67 32.09c4.73 10.41 18.26 9.53 18.26 9.53L38.56 90.51zm29.27 5.37l-7 35 68.22-3.36-44.85-3.63 18.66-17.05-35.03-10.96zm35.32 8.46l-7.46-24.5 1.48-8.15 29.88-2.8-6.71 16.78 3.89 36.66-21.08-17.99zm-.54-58.96L131 69s1.7-19.62-.66-22.81c-8.45-11.4-18.68-10.23-18.68-10.23l-2 4.7-7.05 4.72z" clip-rule="evenodd"/><path fill="#E24F0D" fill-rule="evenodd" stroke="#fff" stroke-linecap="round" stroke-linejoin="round" d="M67 46.31c16.9-12.53 31.19-13.5 31.92-2.16.73 11.34-12.36 30.68-29.25 43.22s-31.19 13.5-31.93 2.16C37 78.19 50.14 58.85 67 46.31z" clip-rule="evenodd"/><path fill="#fff" fill-rule="evenodd" d="M83.71 75.36l11.86 5.27 3.94-31.14-15.8 25.87z" clip-rule="evenodd"/><path fill="#fff" fill-rule="evenodd" d="M99.15 41.64L110.26 52 99.4 50l-.25-8.36zM57.88 94.8l8.1 9.79 4.34-18.07-12.44 8.28z" clip-rule="evenodd"/></svg>
